X: 1
T:Rose-Bud - Reel
T:or Mountain Ranger Hornpipe
M:2/4
L:1/16
R:reel
B:Ryan's Mammoth Collection
Z:Contributed by Ray Davies,  ray(at::)davies99.freeserve.co.uk
K:Bb
vFE|DFBc d2vcd|edcB G2vFE"^SEGUE"|DFBc dBAB|gfdB c2FE|
DFBc d2cd|edcB G2FE|DFBd cBAc|B2d2 B2::
vBc|dBAB GBFB|DFBc dBAB|gBfB edcB|GccB ABce|
dBAB GBFB|DFBc dBAB|gBfB edcB|AFGA B2:|
